icon-themes/sifr_svg/cmd/sc_contourdialog.svg

<svg viewBox="0 0 16 16" xmlns="http://www.w3.org/2000/svg"><g fill="#555753"><path d="m1 1v2h14v-2zm0 3v8h7v-1h-6v-6h6v6h1v-7zm9 0v2h5v-2zm0 3v2h1v-1h2.414062l.292969.2929688c.226891.2268901.416752.4644152.578125.7070312h.714844v-2zm2 2v1c1.56 1.6-.566483 3.5-2 2h-1v1c.8.77 1.640782 1 2.400391 1h1.599609l2 2h1v-1l-2-2v-1.599609c0-.9-.2-1.600391-1-2.400391zm-2 1v1h1v-1zm-9 3v2h9v-.246094c-.5766408-.197302-1.1598619-.519712-1.6933594-1.033203l-.3066406-.294922v-.425781z"/><path d="m2 5v6h6v-6z" opacity=".35"/></g></svg>

<svg xmlns="http://www.w3.org/2000/svg" viewBox="0 0 16 16">
  <path
     style="fill:#555753"
     d="M 1 1 L 1 3 L 15 3 L 15 1 L 1 1 z M 1 4 L 1 12 L 8 12 L 8 11 L 2 11 L 2 5 L 8 5 L 8 11 L 9 11 L 9 4 L 1 4 z M 10 4 L 10 6 L 15 6 L 15 4 L 10 4 z M 10 7 L 10 9 L 11 9 L 11 8 L 13.414062 8 L 13.707031 8.2929688 C 13.933922 8.5198589 14.123783 8.757384 14.285156 9 L 15 9 L 15 7 L 10 7 z M 12 9 L 12 10 C 13.56 11.6 11.433517 13.5 10 12 L 9 12 L 9 13 C 9.8 13.77 10.640782 14 11.400391 14 L 13 14 L 15 16 L 16 16 L 16 15 L 14 13 L 14 11.400391 C 14 10.500391 13.8 9.8 13 9 L 12 9 z M 10 10 L 10 11 L 11 11 L 11 10 L 10 10 z M 1 13 L 1 15 L 10 15 L 10 14.753906 C 9.4233592 14.556604 8.8401381 14.234194 8.3066406 13.720703 L 8 13.425781 L 8 13 L 1 13 z "
     />
  <path
     style="opacity:0.35;fill:#555753"
     d="m 2,5 v 6 H 8 V 5 Z"
     />
</svg>
